static/img/menus/ico-setting.svg

<svg width="16" height="16" viewBox="0 0 16 16" fill="none" xmlns="http://www.w3.org/2000/svg">
<g clip-path="url(#clip0_1180_118)">
<path d="M8.53611 0.463867C9.20598 0.463911 9.54096 0.798872 9.541 1.46875V3.19629C10.2456 3.41628 10.8919 3.79243 11.4316 4.2959L12.9326 3.42773C13.5186 3.09312 13.9796 3.21874 14.3144 3.80469L14.8164 4.67188C15.1511 5.24954 15.0255 5.70615 14.4394 6.04102L12.9512 6.90723C13.0234 7.26676 13.059 7.63328 13.0576 8C13.0586 8.36468 13.0231 8.72941 12.9512 9.08691L14.4394 9.94727C15.0256 10.2822 15.1513 10.7429 14.8164 11.3291L14.3144 12.1953C13.9796 12.7729 13.5186 12.8947 12.9326 12.5596L11.456 11.7061C11.2435 11.8996 11.0189 12.0801 10.7842 12.2461C10.3994 12.4953 9.97975 12.6878 9.54002 12.8174V14.5322C9.53989 15.202 9.20499 15.5371 8.53514 15.5371H7.53123C6.86156 15.537 6.5255 15.2019 6.52537 14.5322V12.8115C6.08488 12.6812 5.66592 12.486 5.28221 12.2334C5.05259 12.0729 4.83412 11.8967 4.62889 11.7061L3.13377 12.5732C2.5482 12.9074 2.08764 12.7859 1.75291 12.209L1.24998 11.3418C0.915241 10.7558 1.04113 10.2948 1.62693 9.95996L3.12205 9.09375C2.97125 8.37293 2.97131 7.62805 3.12205 6.90723L1.62693 6.04102C1.04104 5.70624 0.915605 5.2493 1.24998 4.67188L1.75291 3.80469C2.08773 3.21892 2.5479 3.09319 3.13377 3.42773L4.64744 4.30762C5.17805 3.79603 5.82171 3.41467 6.52537 3.19531V1.46875C6.52604 0.798925 6.86163 0.463964 7.53123 0.463867H8.53611ZM7.99314 5.62402C6.68088 5.62425 5.61717 6.68768 5.61717 8C5.61717 9.31232 6.68088 10.3757 7.99314 10.376C9.3056 10.376 10.3701 9.31246 10.3701 8C10.3701 6.68754 9.3056 5.62402 7.99314 5.62402Z" fill="currentColor"/>
</g>
<defs>
<clipPath id="clip0_1180_118">
<rect width="16" height="16" fill="white"/>
</clipPath>
</defs>
</svg>

<svg xmlns="http://www.w3.org/2000/svg" width="16" height="16" fill="none" viewBox="0 0 16 16"><g clip-path="url(#a)"><path fill="currentColor" d="M8.536.464q1.005 0 1.005 1.005v1.727c.705.22 1.35.596 1.89 1.1l1.502-.868q.88-.503 1.381.377l.502.867q.503.867-.377 1.369l-1.488.866q.108.541.107 1.093c0 .365-.035.73-.107 1.087l1.488.86q.88.503.377 1.382l-.502.866q-.502.867-1.381.365l-1.477-.854a7 7 0 0 1-.672.54c-.385.25-.804.442-1.244.571v1.715q0 1.005-1.005 1.005H7.531q-1.005 0-1.006-1.005v-1.72c-.44-.13-.86-.326-1.243-.579a6 6 0 0 1-.653-.527l-1.495.867q-.879.501-1.381-.364l-.503-.867q-.502-.88.377-1.382l1.495-.866a5.3 5.3 0 0 1 0-2.187l-1.495-.866q-.879-.503-.377-1.37l.503-.866q.502-.88 1.38-.377l1.514.88a4.74 4.74 0 0 1 1.878-1.113V1.47Q6.527.464 7.531.464zm-.543 5.16a2.376 2.376 0 1 0 0 4.752 2.376 2.376 0 0 0 0-4.752"/></g><defs><clipPath id="a"><path fill="#fff" d="M0 0h16v16H0z"/></clipPath></defs></svg>
